assets/images/W_copy.svg

<svg width="50" height="50" viewBox="0 0 50 50" fill="none" xmlns="http://www.w3.org/2000/svg">
<path fill-rule="evenodd" clip-rule="evenodd" d="M25 50C38.8071 50 50 38.8071 50 25C50 11.1929 38.8071 0 25 0C11.1929 0 0 11.1929 0 25C0 38.8071 11.1929 50 25 50ZM25.6708 11.25C29.1464 11.25 32.4391 12.6173 34.9086 15.0784C37.3781 17.5395 38.6586 20.8209 38.7501 24.1935C38.7501 31.3945 32.8964 37.2281 25.6708 37.2281C23.4756 37.2281 21.372 36.6812 19.4512 35.6786L12.5 37.5016L14.3293 30.7564C13.2317 28.8422 12.5915 26.5634 12.5915 24.2847C12.5915 17.0837 18.4451 11.25 25.6708 11.25ZM29.7866 30.4829C30.4269 30.3918 31.7074 29.6626 31.9818 28.9334C32.2562 28.2042 32.2562 27.5661 32.1647 27.2927C32.0732 27.2015 31.8903 27.1104 31.5244 26.928C31.2501 26.7457 29.6037 25.9254 29.3293 25.8342C29.0549 25.7431 28.7805 25.6519 28.5976 26.0165C28.4147 26.3811 27.7744 27.1103 27.5915 27.2927C27.4086 27.475 27.2257 27.5661 26.8598 27.3838C26.8043 27.3562 26.7342 27.3243 26.6506 27.2864C26.1826 27.0742 25.2937 26.6711 24.2074 25.7431C23.2013 24.8316 22.561 23.8289 22.3781 23.4643C22.1952 23.1908 22.3781 23.0085 22.561 22.8262C22.5989 22.7885 22.6525 22.7194 22.7152 22.6386C22.804 22.5242 22.9112 22.3861 23.0183 22.2793C23.2012 22.097 23.2927 21.9147 23.3842 21.7324C23.4756 21.5501 23.4756 21.3678 23.3842 21.1855C23.3239 21.1254 23.0249 20.3915 22.7496 19.7156C22.6074 19.3665 22.4715 19.0329 22.3781 18.8156C22.1328 18.2452 21.8875 18.2575 21.7076 18.2666C21.6862 18.2676 21.6658 18.2687 21.6464 18.2687H21.0061C20.7317 18.2687 20.3659 18.2687 20.0915 18.6333C20.0552 18.6815 20.0093 18.7361 19.9569 18.7984C19.6137 19.2068 18.9939 19.9442 18.9939 21.3678C18.9939 23.0085 20.183 24.5581 20.3659 24.7404C20.371 24.748 20.3775 24.7579 20.3855 24.77C20.6665 25.1945 22.7438 28.3333 25.9452 29.6626C26.4553 29.9168 26.921 30.0824 27.3113 30.2211C27.4807 30.2814 27.636 30.3366 27.7744 30.3918C28.5061 30.5741 29.2379 30.5741 29.7866 30.4829Z" fill="#ffb92f"/>
</svg>

<svg width="50" height="50" fill="none" xmlns="http://www.w3.org/2000/svg"><path fill-rule="evenodd" clip-rule="evenodd" d="M25 50c13.807 0 25-11.193 25-25S38.807 0 25 0 0 11.193 0 25s11.193 25 25 25Zm.67-38.75c3.476 0 6.77 1.367 9.239 3.828 2.47 2.462 3.75 5.743 3.841 9.116 0 7.2-5.854 13.034-13.08 13.034-2.194 0-4.298-.547-6.219-1.55L12.5 37.503l1.83-6.746a13.18 13.18 0 0 1-1.739-6.471c0-7.201 5.854-13.035 13.08-13.035Zm4.117 19.233c.64-.091 1.92-.82 2.195-1.55.274-.729.274-1.367.183-1.64-.092-.091-.275-.183-.64-.365-.275-.182-1.921-1.003-2.196-1.094-.274-.09-.549-.182-.731.183-.183.364-.824 1.093-1.006 1.276-.183.182-.366.273-.732.09a6.97 6.97 0 0 0-.21-.097 9.622 9.622 0 0 1-2.443-1.543c-1.006-.911-1.646-1.914-1.829-2.279-.183-.273 0-.455.183-.638.038-.038.091-.107.154-.187.089-.115.196-.253.303-.36.183-.182.275-.364.366-.547a.58.58 0 0 0 0-.546c-.06-.06-.36-.794-.634-1.47a60.29 60.29 0 0 0-.372-.9c-.245-.57-.49-.558-.67-.55l-.062.003h-.64c-.274 0-.64 0-.915.364a4.215 4.215 0 0 1-.134.165c-.343.409-.963 1.146-.963 2.57 0 1.64 1.189 3.19 1.372 3.372l.02.03c.28.425 2.358 3.563 5.56 4.893.51.254.975.42 1.365.558.17.06.325.116.463.17a5.128 5.128 0 0 0 2.013.092Z" fill="#ffb92f"/></svg>
